svgs/sharp-regular/plug.svg

<svg xmlns="http://www.w3.org/2000/svg" viewBox="0 0 384 512"><!--! Font Awesome Pro 6.6.0 by @fontawesome - https://fontawesome.com License - https://fontawesome.com/license (Commercial License) Copyright 2024 Fonticons, Inc. --><path d="M120 24l0-24L72 0l0 24 0 88 48 0 0-88zm192 0l0-24L264 0l0 24 0 88 48 0 0-88zM24 144L0 144l0 48 24 0 8 0 0 64c0 80.2 59 146.6 136 158.2l0 97.8 48 0 0-97.8c77-11.6 136-78 136-158.2l0-64 8 0 24 0 0-48-24 0-8 0-48 0L80 144l-48 0-8 0zM192 368c-61.9 0-112-50.1-112-112l0-64 224 0 0 64c0 61.9-50.1 112-112 112z"/></svg>

<svg xmlns="http://www.w3.org/2000/svg" viewBox="0 0 384 512"><!--! Font Awesome Pro 6.4.2 by @fontawesome - https://fontawesome.com License - https://fontawesome.com/license (Commercial License) Copyright 2023 Fonticons, Inc. --><path d="M120 24V0H72V24v88h48V24zm192 0V0H264V24v88h48V24zM24 144H0v48H24h8v64c0 80.2 59 146.6 136 158.2V512h48V414.2c77-11.6 136-78 136-158.2V192h8 24V144H360h-8H304 80 32 24zM192 368c-61.9 0-112-50.1-112-112V192H304v64c0 61.9-50.1 112-112 112z"/></svg>
